X:1
T:Pigan gick i fårahus
S:efter John Enninger
O:Höör, Skåne
N:Transkriberad från Runtenom nr.4, 2004 (Skånes Spelmansförbunds tidning)
M:2/4
L:1/16
K:Dm
| D2E2F2G2 | A2A2^c2e2 | e2d2d2c2 | A4 z2 c2 |
w:Pi-gan gick i få-ra-hus o´ skul-le mol-ka får Så
c2BB B2AA | A2F2F2A2 | A2G2G2F2 | D6 z2 |
w:tril-la hon öf-ver en får-a-lort o´ spil-lde ut hvar tår
E2F2 D4 | F2A2 (cBAG) | F2F2E2D2 | E4 D4 |
w: Har I hört, tror ni me-e-e-ej Pri-sa vill jag bon-den.

